X:1
T:Abendlied
T:Abendlied
T:Franz Abt
C:Franz Abt
%%score [ 1 2 3 4 ]
L:1/8
Q:1/4=61
M:3/4
K:D
V:1 treble nm="Soprano"
V:2 treble nm="Alto"
V:3 treble-8 nm="Tenor"
V:4 bass nm="Bass"
V:1
"^Langsam"!pp! A2 | (d2 A2) F2 | E4 F2 |!<(! G3/2 ^G/ B2 A2!<)! | %4
w: Der|A- * bend|sinkt, im|dunk- len Ne- bel-|
!>(! =G2 F!>)!!p! F"^cresc." ^G G | A2 z A d d | (c2 e2) (dB) | A3 (B/A/) (A/^G/) (F/G/) | %8
w: schlei- er ruht still die|Welt, ruht still die|Welt _ vom _|Mon- den- * schein _ be- *|
 A4!pp! A2 | d2 A2 F2 | E4 F2 |!<(! G3/2 ^G/ B2 A2!<)! |!>(! =G2 F!>)!!pp! F"^cresc." ^G G | %13
w: strahlt; das|glüh'n- * de|A- bend-|rot be- ginnt zu|fei- ern den Dank zu|
 A2 z!f! A d d |!<(! c3 c d ^d!<)! |!>(! e4 d2!>)! | c2 z!f! c d e | f7/2 f/ d3/2 B/ | e4 A3/2 d/ | %19
w: Gott, den Dank zu|Gott, wenn es die|Ber- ge|malt, den Dank zu|Gott, wenn es die|Ber- ge, die|
!>(! c4 B2!>)! | A2 z2!pp! A2 | A3!<(! B c d!<)! | (dc) e2!pp! A2 | A3!<(! B c d!<)! | %24
w: Ber- ge|malt, die|Wol- ken schwe- ben|nie- * der und|freu- dig tö- nen|
 (dc) e2"^cresc." A2 | !>!f3 !>!e !>!d !>!c | B3/2 d/ A2 z!ff! A |"^rit." B A (Bc) (dB) | %28
w: Lie- * der dem|Schöp- fer, der im|Him- mel wacht, dem|Schöp- fer, der _ im _|
 f3/2 F/ F2 z2 |!p! !>!=A4 A2 | (Af ed) c3/2 B/ | A6- | A2!p! A2 A2 |!<(! (A6-!<)! | %34
w: Him- mel wacht.|Gu- te|Nacht, _ _ _ gu- te|Nacht,|_ gu- te|Nacht,|
!f! Af ed)!p! !>!c3/2 B/ | A2 z2!pp! c3/2 c/ | !fermata!d4 |] %37
w: _ _ _ _ gu- te|Nacht, gu- te|Nacht.|
V:2
!pp! F2 | F4 D2 | D4 D2 |!<(! D3/2 E/ E2 E2!<)! |!>(! E2 D!>)!!p! F"^cresc." E E | E2 z E F ^G | %6
w: Der|A- bend|sinkt, im|dunk- len Ne- bel-|schlei- er ruht still die|Welt, ruht still die|
 (A2 =G2) F2 | E C E2 E2 | E4!pp! =G2 | F4 D2 | D4 D2 |!<(! D3/2 E/ E2 E2!<)! | %12
w: Welt _ vom|Mon- den- schein be-|strahlt; das|glüh'n- de|A- bend-|rot be- ginnt zu|
!>(! E2 D!>)!!pp! D"^cresc." E E | E2 z!f! E F ^G |!<(! A3 A A A!<)! |!>(! (A2 ^G2) B2!>)! | %16
w: fei- ern den Dank zu|Gott, den Dank zu|Gott, wenn es die|Ber- * ge|
 A2 z!f! A A A | A7/2 F/ F3/2 E/ | E4 F3/2 F/ |!>(! E4 D2!>)! | C2 z2 z2 | z!pp! F F2 F2 | %22
w: malt, den Dank zu|Gott, wenn es die|Ber- ge, die|Ber- ge|malt,|die Wol- ken|
 G4!pp! G2 | F F/ F/ F2 F2 | G2 G2"^cresc." A2 | !>!A3 !>!G !>!F !>!A | G3/2 G/ F2 z!ff! F | %27
w: schwe- ben|nie- der und tö- nen|Lie- der dem|Schöp- fer, der im|Him- mel wacht, dem|
 G F (DF) F2 | ^A3/2 F/ F2 z2 |!p! (!>!E2 F2) G2 | F4 z2 | z2 z2 E3/2 G/ | F2 z2 z2 | %33
w: Schöp- fer, der _ im|Him- mel wacht.|Gu- * te|Nacht,|gu- te|Nacht,|
!<(! (E2 F2) G2!<)! |!f! (FA GF)!p! !>!A3/2 G/ | F2 z2!pp! G3/2 G/ | !fermata!F4 |] %37
w: gu- * te|Nacht, _ _ _ gu- te|Nacht, gu- te|Nacht.|
V:3
!pp! A2 | A4 A2 | B4 B2 |!<(! B3/2 d/ c2 c2!<)! |!>(! A2 A!>)!!p! A"^cresc." B B | c2 z c d d | %6
w: Der|A- bend|sinkt, im|dunk- len Ne- bel-|schlei- er ruht still die|Welt, ruht still die|
 (e2 A2) (AB) | c A c2 d2 | c4!pp! c2 | d4 A2 | B4 B2 |!<(! B3/2 d/ c2 c2!<)! | %12
w: Welt _ vom _|Mon- den- schein be-|strahlt; das|glüh'n- de|A- bend-|rot be- ginnt zu|
!>(! A2 A!>)!!pp! A"^cresc." B B | A2 z!f! c d d |!<(! e3 e d =c!<)! |!>(! (c2 B2) e2!>)! | %16
w: fei- ern den Dank zu|Gott, den Dank zu|Gott, wenn es die|Ber- * ge|
 e2 z!f! e d c | d7/2 A/ A3/2 ^G/ | A4 d3/2 A/ |!>(! A4 ^G2!>)! | A2 z2 z2 | z!pp! A A2 A2 | %22
w: malt, den Dank zu|Gott, wenn es die|Ber- ge, die|Ber- ge|malt,|die Wol- ken|
 A4!pp! A2 | A A/ A/ A2 A2 | A2 A2"^cresc." A2 | !>!d3 !>!c !>!d !>!d | d3/2 d/ d2 z!ff! d | %27
w: schwe- ben|nie- der und tö- nen|Lie- der dem|Schöp- fer, der im|Him- mel wacht, dem|
 d d (B^A) B2 | c3/2 F/ F2 z2 |!p! (!>!c2 d2) e2 | d2 A2 z2 | z2 c2- c3/2 e/ | d2 z2 z2 | %33
w: Schöp- fer, der _ im|Him- mel wacht.|Gu- * te|Nacht, _|gu- * te|Nacht,|
!<(! (c2 d2) e2!<)! |!f! (d2 cd)!p! !>!d3/2 d/ | d2 z2!pp! A3/2 A/ | !fermata!A4 |] %37
w: gu- * te|Nacht, _ _ gu- te|Nacht, gu- te|Nacht.|
V:4
!pp! D,2 | D,4 F,2 | G,4 F,2 |!<(! E,3/2 E,/ A,2 A,2!<)! |!>(! D,2 D,!>)!!p! D,"^cresc." D, D, | %5
w: Der|A- bend|sinkt, im|dunk- len Ne- bel-|schlei- er ruht still die|
 C,2 z C, B,, B,, | (A,,2 C,2) D,2 | E,3 E, E, E, | A,,4!pp! A,2 | D,4 F,2 | G,4 F,2 | %11
w: Welt, ruht still die|Welt _ vom|Mon- den- schein be-|strahlt; das|glüh'n- de|A- bend-|
!<(! E,3/2 E,/ A,2 A,2!<)! |!>(! D,2 D,!>)!!pp! D,"^cresc." D, D, | C,2 z!f! C, B,, B,, | %14
w: rot be- ginnt zu|fei- ern den Dank zu|Gott, den Dank zu|
!<(! A,,3 G, F, =F,!<)! |!>(! E,4 ^G,2!>)! | A,2 z!f! G, F, E, | D,7/2 D,/ B,,3/2 D,/ | %18
w: Gott, wenn es die|Ber- ge|malt, den Dank zu|Gott, wenn es die|
 C,4 D,3/2 B,,/ |!>(! E,4 E,2!>)! | A,,2 z2 z2 | z!pp! D, D,2 D,2 | E,2!pp! C,4 | %23
w: Ber- ge, die|Ber- ge|malt,|die Wol- ken|schwe- ben|
 D, D,/ D,/ D,2 D,2 | E,2 C,2"^cresc." A,2 | !>!D,3 !>!A,, !>!B,, !>!F, | G,3/2 B,,/ D,2 z!ff! D, | %27
w: nie- der und tö- nen|Lie- der dem|Schöp- fer, der im|Him- mel wacht, dem|
 G, D, (G,F,) (B,,D,) | F,3/2 F,/ F,2 z2 |!p! !>!A,,4 A,,2 | D,4 z2 | A,4 A,2 | D,2 z2 z2 | %33
w: Schöp- fer, der _ im _|Him- mel wacht.|Gu- te|Nacht,|gu- te|Nacht,|
!<(! A,4 A,2!<)! |!f! (D,2 A,B, F,G,) | A,4!pp! A,,2 | !fermata!D,4 |] %37
w: gu- te|Nacht, _ _ _ _|gu- te|Nacht.|

